packages/assets/static/images/icons/transit.svg

<svg width="24" height="24" viewBox="0 0 24 24" xmlns="http://www.w3.org/2000/svg">
<path d="M20.1437 9.31993H8.41253C8.02798 9.31993 7.71652 9.00847 7.71652 8.62393C7.71652 8.23938 8.02798 7.92792 8.41253 7.92792H20.1429C20.5274 7.92792 20.8389 8.23938 20.8389 8.62393C20.8389 9.00847 20.5283 9.31993 20.1437 9.31993Z"/>
<path d="M20.1437 14.5992H14.165C13.7805 14.5992 13.469 14.2877 13.469 13.9031C13.469 13.5186 13.7805 13.2071 14.165 13.2071H19.4477V5.44404H8.4134C8.02885 5.44404 7.71739 5.13257 7.71739 4.74803V3.83104C7.71739 2.4773 8.81882 1.375 10.1726 1.375H18.3837C19.7374 1.375 20.8389 2.47643 20.8389 3.83104V13.9031C20.8389 14.2877 20.5283 14.5992 20.1437 14.5992ZM9.10853 4.05202H19.4469V3.83104C19.4469 3.24465 18.9701 2.76702 18.3837 2.76702H10.1726C9.58617 2.76702 9.1094 3.24378 9.1094 3.83104L9.10853 4.05202Z"/>
<path d="M19.5574 16.9447H17.7973C17.09 16.9447 16.5149 16.3696 16.5149 15.6623V13.9031C16.5149 13.5186 16.8264 13.2071 17.2109 13.2071C17.5955 13.2071 17.9069 13.5186 17.9069 13.9031V15.5536H19.4477V13.9031C19.4477 13.5186 19.7592 13.2071 20.1437 13.2071C20.5283 13.2071 20.8389 13.5186 20.8389 13.9031L20.8398 15.6623C20.8398 16.3696 20.2647 16.9447 19.5574 16.9447Z"/>
<path d="M16.9177 12.1431C17.4035 12.1431 17.7973 11.7493 17.7973 11.2635C17.7973 10.7778 17.4035 10.384 16.9177 10.384C16.432 10.384 16.0382 10.7778 16.0382 11.2635C16.0382 11.7493 16.432 12.1431 16.9177 12.1431Z"/>
<path d="M22.0769 8.56912C21.6924 8.56912 21.3809 8.25765 21.3809 7.87311V6.11308C21.3809 5.72853 21.6924 5.41707 22.0769 5.41707C22.4615 5.41707 22.7729 5.72853 22.7729 6.11308V7.87311C22.7729 8.25765 22.4615 8.56912 22.0769 8.56912Z"/>
<path d="M13.6535 13.4273H1.92312C1.53858 13.4273 1.22711 13.1158 1.22711 12.7312C1.22711 12.3467 1.53858 12.0352 1.92312 12.0352H13.6535C14.038 12.0352 14.3495 12.3467 14.3495 12.7312C14.3495 13.1158 14.038 13.4273 13.6535 13.4273Z"/>
<path d="M13.6535 9.32167H1.92312C1.53858 9.32167 1.22711 9.01021 1.22711 8.62567C1.22711 8.24112 1.53858 7.92966 1.92312 7.92966H13.6535C14.038 7.92966 14.3495 8.24112 14.3495 8.62567C14.3495 9.01021 14.038 9.32167 13.6535 9.32167Z"/>
<path d="M2.84533 22.4754C2.69047 22.4754 2.53474 22.424 2.40598 22.3188C2.10843 22.076 2.06319 21.6375 2.30679 21.3391L4.90291 18.1566C5.14564 17.8591 5.58412 17.8138 5.88254 18.0574C6.18008 18.3002 6.22532 18.7387 5.98172 19.0371L3.38561 22.2196C3.24815 22.3884 3.04717 22.4754 2.84533 22.4754Z"/>
<path d="M12.88 22.625C12.6791 22.625 12.4798 22.5389 12.3424 22.3718L9.59661 19.0397C9.35214 18.743 9.39477 18.3045 9.69144 18.0601C9.98811 17.8156 10.4266 17.8582 10.6711 18.1549L13.4168 21.487C13.6613 21.7837 13.6187 22.2222 13.322 22.4667C13.1924 22.5737 13.0358 22.625 12.88 22.625Z"/>
<path d="M11.8934 19.2929H3.68228C2.32854 19.2929 1.22711 18.1914 1.22711 16.8377V7.45289C1.22711 6.09916 2.32854 4.99685 3.68228 4.99685H11.8934C13.2472 4.99685 14.3486 6.09829 14.3486 7.45289V16.8377C14.3486 18.1914 13.2472 19.2929 11.8934 19.2929ZM3.68228 6.38887C3.09589 6.38887 2.61913 6.86563 2.61913 7.45289V16.8377C2.61913 17.4241 3.09589 17.9008 3.68228 17.9008H11.8934C12.4798 17.9008 12.9566 17.4241 12.9566 16.8377V7.45289C12.9566 6.8665 12.4798 6.38887 11.8934 6.38887H3.68228Z"/>
<path d="M4.56186 16.8368C5.04764 16.8368 5.44144 16.443 5.44144 15.9572C5.44144 15.4715 5.04764 15.0777 4.56186 15.0777C4.07608 15.0777 3.68228 15.4715 3.68228 15.9572C3.68228 16.443 4.07608 16.8368 4.56186 16.8368Z"/>
<path d="M11.0139 16.8368C11.4996 16.8368 11.8934 16.443 11.8934 15.9572C11.8934 15.4715 11.4996 15.0777 11.0139 15.0777C10.5281 15.0777 10.1343 15.4715 10.1343 15.9572C10.1343 16.443 10.5281 16.8368 11.0139 16.8368Z"/>
</svg>

<svg viewBox="0 0 24 24" xmlns="http://www.w3.org/2000/svg" aria-hidden="true" fill="currentColor"><path d="M20.144 9.32H8.413a.696.696 0 1 1 0-1.392h11.73a.696.696 0 0 1 0 1.392"/><path d="M20.144 14.6h-5.979a.696.696 0 1 1 0-1.393h5.283V5.444H8.413a.696.696 0 0 1-.696-.696v-.917a2.46 2.46 0 0 1 2.456-2.456h8.21a2.46 2.46 0 0 1 2.456 2.456v10.072c0 .385-.31.696-.695.696M9.109 4.051h10.338V3.83c0-.586-.477-1.064-1.063-1.064h-8.211c-.587 0-1.064.477-1.064 1.064z"/><path d="M19.557 16.945h-1.76a1.284 1.284 0 0 1-1.282-1.283v-1.759a.696.696 0 1 1 1.392 0v1.65h1.54v-1.65a.696.696 0 1 1 1.392 0v1.76c0 .707-.574 1.282-1.282 1.282m-2.64-4.802a.88.88 0 1 0 0-1.76.88.88 0 0 0 0 1.76m5.16-3.574a.696.696 0 0 1-.696-.696v-1.76a.696.696 0 1 1 1.392 0v1.76a.696.696 0 0 1-.696.696m-8.424 4.858H1.923a.696.696 0 1 1 0-1.392h11.73a.696.696 0 1 1 0 1.392m0-4.105H1.923a.696.696 0 1 1 0-1.392h11.73a.696.696 0 1 1 0 1.392M2.845 22.475a.696.696 0 0 1-.539-1.136l2.597-3.182a.696.696 0 1 1 1.079.88L3.386 22.22a.7.7 0 0 1-.54.255m10.035.15c-.2 0-.4-.086-.538-.253L9.597 19.04a.696.696 0 1 1 1.074-.885l2.746 3.332a.696.696 0 0 1-.537 1.138"/><path d="M11.893 19.293h-8.21a2.46 2.46 0 0 1-2.456-2.455V7.453a2.46 2.46 0 0 1 2.455-2.456h8.211a2.46 2.46 0 0 1 2.456 2.456v9.385a2.46 2.46 0 0 1-2.456 2.455M3.683 6.389c-.587 0-1.064.477-1.064 1.064v9.385c0 .586.477 1.063 1.063 1.063h8.211c.587 0 1.064-.477 1.064-1.063V7.453c0-.586-.477-1.064-1.064-1.064z"/><path d="M4.562 16.837a.88.88 0 1 0 0-1.76.88.88 0 0 0 0 1.76m6.452 0a.88.88 0 1 0 0-1.76.88.88 0 0 0 0 1.76"/></svg>
